lib/brands/icons/tinder.svg

<svg xmlns="http://www.w3.org/2000/svg" fill="none" aria-hidden="true" viewBox="0 0 48 48"><g id="tinder-Icon"><g id="tinder"><path id="Path" fill="url(#paint0_radial_94_20637)" d="M24 3C12.4172 3 3 12.4172 3 24C3 35.5828 12.4172 45 24 45C35.5828 45 45 35.5828 45 24C45 12.4172 35.5828 3 24 3Z"/><path id="vector" fill="white" fill-rule="evenodd" d="M19.7925 21.69C19.7667 21.6992 19.736 21.6907 19.7187 21.6696C18.9024 20.5951 18.6974 18.748 18.6475 18.0386C18.6372 17.902 18.4827 17.8252 18.359 17.8938C15.8386 19.3012 13.5 22.6305 13.5 25.845C13.5 31.3673 17.3582 36 24 36C30.2228 36 34.5 31.2252 34.5 25.8456C34.5 18.8065 29.44 14.1296 24.9331 12.0154C24.8277 11.9659 24.6878 12.0677 24.7034 12.1826C25.2838 15.976 24.4819 20.1018 19.7925 21.69Z" clip-rule="evenodd"/></g></g><defs><radialGradient id="paint0_radial_94_20637" cx="0" cy="0" r="1" gradientTransform="translate(24 45) scale(44.8699)" gradientUnits="userSpaceOnUse"><stop stop-color="#FF7854"/><stop offset="1" stop-color="#FD267D"/></radialGradient></defs></svg>

<svg xmlns="http://www.w3.org/2000/svg" fill="none" aria-hidden="true" viewBox="0 0 48 48"><path fill="url(#a)" d="M24 3C12.417 3 3 12.417 3 24s9.417 21 21 21 21-9.417 21-21S35.583 3 24 3Z"/><path fill="#fff" fill-rule="evenodd" d="M19.793 21.69a.068.068 0 0 1-.074-.02c-.817-1.075-1.022-2.922-1.072-3.631-.01-.137-.164-.214-.288-.145-2.52 1.407-4.859 4.737-4.859 7.951C13.5 31.367 17.358 36 24 36c6.223 0 10.5-4.775 10.5-10.154 0-7.04-5.06-11.716-9.567-13.83-.105-.05-.245.052-.23.167.58 3.793-.221 7.919-4.91 9.507Z" clip-rule="evenodd"/><defs><radialGradient id="a" cx="0" cy="0" r="1" gradientTransform="translate(24 45) scale(44.8699)" gradientUnits="userSpaceOnUse"><stop stop-color="#FF7854"/><stop offset="1" stop-color="#FD267D"/></radialGradient></defs></svg>
